X:1
T:Peace
C:1959 - Horace Silver
Z:www.realbook.site
L:1/8
M:2/2
I:linebreak $
K:Amin
V:1 treble nm=" " snm=" "
V:1
 (3z cd ||"Am7b5" (3_e2 e2 e2"Ab9" e2- (3edc |"Gm7" d/c/_B B2-"C7b9#5" B3 B | %3
"Cbmaj7" _B/_A/_G- G2"Cm7b5" G2"F7b9#5" A2 |$"Bbmaj7" F6 (3z DE |"Bm7" (3^F2 F2 F2"E9" F2 (3z ED | %6
"Amaj7" ^CEAB"F#m7" ^c2- (3cBA |$"Ebm7b5" (3_A2 B2 =A2"Ab13" _A2"Ab7#5" A2 |"Dbmaj9" _A8 | %9
"C7#9#11" (3_G2 _A2"C9#11" G2"Cb7#9#11" F2"Cb9#11" F2 |"Bbmaj9" F6 z2 |] %11

